src/cmd/sc_removebullets.svg

<?xml version="1.0" encoding="UTF-8" standalone="no"?>
<svg
   xmlns:dc="http://purl.org/dc/elements/1.1/"
   xmlns:cc="http://creativecommons.org/ns#"
   xmlns:rdf="http://www.w3.org/1999/02/22-rdf-syntax-ns#"
   xmlns:svg="http://www.w3.org/2000/svg"
   xmlns="http://www.w3.org/2000/svg"
   xmlns:sodipodi="http://sodipodi.sourceforge.net/DTD/sodipodi-0.dtd"
   xmlns:inkscape="http://www.inkscape.org/namespaces/inkscape"
   viewBox="0 0 16 16"
   version="1.1"
   id="svg6"
   sodipodi:docname="sc_removebullets.svg"
   inkscape:version="0.92.4 (5da689c313, 2019-01-14)">
  <metadata
     id="metadata12">
    <rdf:RDF>
      <cc:Work
         rdf:about="">
        <dc:format>image/svg+xml</dc:format>
        <dc:type
           rdf:resource="http://purl.org/dc/dcmitype/StillImage" />
      </cc:Work>
    </rdf:RDF>
  </metadata>
  <defs
     id="defs10" />
  <sodipodi:namedview
     pagecolor="#ffffff"
     bordercolor="#666666"
     borderopacity="1"
     objecttolerance="10"
     gridtolerance="10"
     guidetolerance="10"
     inkscape:pageopacity="0"
     inkscape:pageshadow="2"
     inkscape:window-width="1920"
     inkscape:window-height="1011"
     id="namedview8"
     showgrid="true"
     inkscape:zoom="29.5"
     inkscape:cx="3.956008"
     inkscape:cy="8.6054932"
     inkscape:window-x="0"
     inkscape:window-y="32"
     inkscape:window-maximized="1"
     inkscape:current-layer="svg6">
    <inkscape:grid
       type="xygrid"
       id="grid822" />
  </sodipodi:namedview>
  <path
     d="M 4,2 C 3.4477153,2 3,2.4477153 3,3 3,3.5522847 3.4477153,4 4,4 4.5522847,4 5,3.5522847 5,3 5,2.4477153 4.5522847,2 4,2 Z m 2,0 v 1 h 2 6 V 2 H 8 Z m 0,2 v 1 h 2 6 V 4 H 8 Z M 4,8 C 3.4477153,8 3,8.4477153 3,9 3,9.5522847 3.4477153,10 4,10 4.5522847,10 5,9.5522847 5,9 5,8.4477153 4.5522847,8 4,8 Z"
     id="path2"
     inkscape:connector-curvature="0"
     style="fill:#232629"
     sodipodi:nodetypes="sssssccccccccccccccsssss" />
  <path
     d="m8.9902344 8-.9902344.9902344 2.009766 2.0097656-2.009766 2.009766.9902344.990234 2.0097656-2.009766 2.009766 2.009766.990234-.990234-2.009766-2.009766 2.009766-2.0097656-.990234-.9902344-2.009766 2.009766z"
     fill="#c7162b"
     id="path4" />
</svg>

<svg viewBox="0 0 16 16" xmlns="http://www.w3.org/2000/svg"><path d="m4 2a1 1 0 0 0 -1 1 1 1 0 0 0 1 1 1 1 0 0 0 1-1 1 1 0 0 0 -1-1zm2 0v1h2 6v-1h-6zm0 2v1h2 4v-1h-4zm-2 4a1 1 0 0 0 -1 1 1 1 0 0 0 1 1 1 1 0 0 0 1-1 1 1 0 0 0 -1-1z" fill="#232629"/><path d="m8.9902344 8-.9902344.9902344 2.009766 2.0097656-2.009766 2.009766.9902344.990234 2.0097656-2.009766 2.009766 2.009766.990234-.990234-2.009766-2.009766 2.009766-2.0097656-.990234-.9902344-2.009766 2.009766z" fill="#c7162b"/></svg>
